static/img/in-field/checkbox-progression-active-error-dark.svg

<svg fill="none" height="56" viewBox="0 0 56 56" width="56" xmlns="http://www.w3.org/2000/svg" xmlns:xlink="http://www.w3.org/1999/xlink"><clipPath id="a"><path d="m10 10h36v36h-36z"/></clipPath><g clip-path="url(#a)" clip-rule="evenodd" fill-rule="evenodd"><path d="m18 10c-4.4183 0-8 3.5817-8 8v20c0 4.4183 3.5817 8 8 8h20c4.4183 0 8-3.5817 8-8v-20c0-4.4183-3.5817-8-8-8zm19.3333 3h-18.6666c-3.1466 0-5.6667 2.5529-5.6667 5.6667v18.6666c0 3.1138 2.5201 5.6667 5.6667 5.6667h18.6666c3.1466 0 5.6667-2.5529 5.6667-5.6667v-18.6666c0-3.1138-2.5201-5.6667-5.6667-5.6667zm-18.6666 3h18.6666c1.48 0 2.6667 1.2 2.6667 2.6667v18.6666c0 1.4667-1.1867 2.6667-2.6667 2.6667h-18.6666c-1.48 0-2.6667-1.2-2.6667-2.6667v-18.6666c0-1.4667 1.1867-2.6667 2.6667-2.6667z" fill="#da212c"/><path d="m18.6667 16h18.6666c1.48 0 2.6667 1.2 2.6667 2.6667v18.6666c0 1.4667-1.1867 2.6667-2.6667 2.6667h-18.6666c-1.48 0-2.6667-1.2-2.6667-2.6667v-18.6666c0-1.4667 1.1867-2.6667 2.6667-2.6667zm0 12 6.6666 6.6667 12-12-1.88-1.8934-10.12 10.12-4.7866-4.7733z" fill="#da212c"/><path d="m18.6667 28 6.6666 6.6667 12-12-1.88-1.8934-10.12 10.12-4.7866-4.7733z" fill="#fff"/></g></svg>

<svg width="56" height="56" viewBox="0 0 56 56" fill="none" xmlns="http://www.w3.org/2000/svg"><g clip-path="url(#clip0_7256_86245)"><path fill-rule="evenodd" clip-rule="evenodd" d="M18 10C13.5817 10 10 13.5817 10 18V38C10 42.4183 13.5817 46 18 46H38C42.4183 46 46 42.4183 46 38V18C46 13.5817 42.4183 10 38 10H18ZM37.3333 13H18.6667C15.5201 13 13 15.5529 13 18.6667V37.3333C13 40.4471 15.5201 43 18.6667 43H37.3333C40.4799 43 43 40.4471 43 37.3333V18.6667C43 15.5529 40.4799 13 37.3333 13ZM18.6667 16H37.3333C38.8133 16 40 17.2 40 18.6667V37.3333C40 38.8 38.8133 40 37.3333 40H18.6667C17.1867 40 16 38.8 16 37.3333V18.6667C16 17.2 17.1867 16 18.6667 16Z" fill="#DA212C"/><path fill-rule="evenodd" clip-rule="evenodd" d="M18.6667 16H37.3333C38.8133 16 40 17.2 40 18.6667V37.3333C40 38.8 38.8133 40 37.3333 40H18.6667C17.1867 40 16 38.8 16 37.3333V18.6667C16 17.2 17.1867 16 18.6667 16ZM18.6667 28L25.3333 34.6667L37.3333 22.6667L35.4533 20.7733L25.3333 30.8933L20.5467 26.12L18.6667 28Z" fill="#DA212C"/><path fill-rule="evenodd" clip-rule="evenodd" d="M18.6667 28L25.3333 34.6667L37.3333 22.6667L35.4533 20.7733L25.3333 30.8933L20.5467 26.12L18.6667 28Z" fill="#fff"/></g><defs><clipPath id="clip0_7256_86245"><rect width="36" height="36" fill="#fff" transform="translate(10 10)"/></clipPath></defs></svg>
